X: 33739
T: Rattigan's
R: reel
M: 4/4
K: Gmajor
2GbA GAbG|2 gfg edbA|GAbG GAbG|AbAG FDED|
bG2G EGDG|2 G2g edbA|GAbG GAbG|AGFA 3Gz:|
dg2g gfed|eaag aged|gded gded|ezgg gfed|
bG2G EGDG|2 G2g edbA|GAbG GAbG|AGFA 3Gz:|

